src/shared/assets/icons/messenger.svg

<svg width="22" height="24" viewBox="0 0 22 24" fill="none" xmlns="http://www.w3.org/2000/svg">
<path fill-rule="evenodd" clip-rule="evenodd" d="M20.1131 17.1417C21.2813 15.0135 21.2963 12.4606 20.153 10.3196C19.0098 8.17856 16.8557 6.72546 14.3968 6.43648C13.313 3.96537 10.925 2.27316 8.17863 2.03006C5.43221 1.78695 2.77042 3.03217 1.24746 5.27253C-0.275505 7.5129 -0.413944 10.387 0.886968 12.7565L0.307165 14.7344C0.176145 15.181 0.30391 15.6617 0.64093 15.9902C0.97795 16.3187 1.47124 16.4433 1.92957 16.3157L3.95948 15.7506C4.7809 16.179 5.67719 16.4543 6.60228 16.5622C7.42916 18.4471 9.03004 19.9072 11.0148 20.5867C12.9995 21.2661 15.1857 21.1025 17.0407 20.1357L19.0705 20.7008C19.5288 20.8284 20.0221 20.7038 20.3591 20.3754C20.6961 20.047 20.824 19.5663 20.693 19.1197L20.1131 17.1417ZM18.6612 16.675C18.5556 16.848 18.5279 17.0558 18.5847 17.2494L19.1581 19.205L17.1512 18.6463C16.9526 18.591 16.7394 18.618 16.5619 18.7209C15.1753 19.5217 13.5165 19.7454 11.9588 19.3419C10.4012 18.9383 9.07545 17.9413 8.28003 16.5753C10.3569 16.3658 12.2498 15.3212 13.5024 13.6933C14.7549 12.0655 15.2534 10.002 14.8777 8.00059C16.7362 8.42838 18.2748 9.69239 19.0218 11.405C19.7687 13.1175 19.6348 15.0742 18.6612 16.675Z" fill="#D9D9D9"/>
</svg>

<svg xmlns="http://www.w3.org/2000/svg" width="22" height="24" fill="none"><path fill="#D9D9D9" fill-rule="evenodd" d="M20.113 17.142a7.145 7.145 0 0 0 .04-6.822c-1.143-2.141-3.297-3.595-5.756-3.884-1.084-2.47-3.472-4.163-6.218-4.406-2.747-.243-5.409 1.002-6.932 3.243a7.15 7.15 0 0 0-.36 7.484l-.58 1.977c-.13.447-.003.928.334 1.256.337.329.83.453 1.289.326l2.03-.565a7.627 7.627 0 0 0 2.642.811c.827 1.885 2.428 3.345 4.413 4.025a7.68 7.68 0 0 0 6.026-.451l2.03.565c.458.127.951.003 1.288-.326.337-.328.465-.809.334-1.255l-.58-1.978Zm-1.452-.467a.714.714 0 0 0-.076.574l.573 1.956-2.007-.559a.767.767 0 0 0-.59.075 6.14 6.14 0 0 1-4.602.62 5.985 5.985 0 0 1-3.679-2.766 7.538 7.538 0 0 0 5.222-2.882 7.157 7.157 0 0 0 1.376-5.692c1.858.427 3.397 1.691 4.144 3.404a5.718 5.718 0 0 1-.36 5.27Z" clip-rule="evenodd"/></svg>
